src/Pure-Dark/16/symbolic/status/auth-sim-locked-symbolic.svg

<svg width="16" height="16" version="1.1" xmlns="http://www.w3.org/2000/svg">
 <path class="ColorScheme-Text" d="m4 7v3h2v-3h-2zm3 0v2h2v-2h-2zm3 0v3h0.16992c0.30033-0.85468 0.9754-1.5298 1.8301-1.8301v-1.1699h-2zm-3 3v3h2v-3h-2zm-3 1v2h2v-2h-2z" color="#f2f2f2" fill="#f2f2f2"/>
 <path d="m6 1-4 4v1.4141 6.5859c0 1.108 0.892 2 2 2h5v-1h-5c-0.554 0-1-0.446-1-1v-7.5859l3.4141-3.4141h5.5859c0.554 0 1 0.446 1 1v5h1v-5c0-1.108-0.892-2-2-2h-6z" fill="#f2f2f2"/>
 <path d="m13 9c-1.108 0-2 0.892-2 2v1c-0.554 0-1 0.446-1 1v2c0 0.554 0.446 1 1 1h4c0.554 0 1-0.446 1-1v-2c0-0.554-0.446-1-1-1v-1c0-1.108-0.892-2-2-2zm0 1c0.554 0 1 0.446 1 1v1h-2v-1c0-0.554 0.446-1 1-1zm-2 3h4v2h-4z" fill="#f2f2f2" stroke-linecap="round" stroke-linejoin="round" stroke-width="2" style="paint-order:stroke fill markers"/>
</svg>

<?xml version="1.0" encoding="UTF-8" standalone="no"?>
<svg
   width="16"
   height="16"
   version="1.1"
   id="svg3"
   sodipodi:docname="auth-sim-locked-symbolic.svg"
   inkscape:version="1.4.2 (ebf0e940d0, 2025-05-08)"
   xmlns:inkscape="http://www.inkscape.org/namespaces/inkscape"
   xmlns:sodipodi="http://sodipodi.sourceforge.net/DTD/sodipodi-0.dtd"
   xmlns="http://www.w3.org/2000/svg"
   xmlns:svg="http://www.w3.org/2000/svg">
  <defs
     id="defs3">
     <style
        id="current-color-scheme"
        type="text/css">
        .ColorScheme-Text { color:#f2f2f2; }
        .ColorScheme-NeutralText { color:#f67400; }
        .ColorScheme-PositiveText { color:#37c837; }
        .ColorScheme-NegativeText { color:#f44336; }
     </style>
  </defs>
  <sodipodi:namedview
     id="namedview3"
     pagecolor="#ffffff"
     bordercolor="#000000"
     borderopacity="0.25"
     inkscape:showpageshadow="2"
     inkscape:pageopacity="0.0"
     inkscape:pagecheckerboard="0"
     inkscape:deskcolor="#d1d1d1"
     inkscape:zoom="49.6875"
     inkscape:cx="8"
     inkscape:cy="8"
     inkscape:window-width="1920"
     inkscape:window-height="1010"
     inkscape:window-x="0"
     inkscape:window-y="0"
     inkscape:window-maximized="1"
     inkscape:current-layer="svg3" />
  <path
     id="path1"
     style="fill:currentColor"
     class="ColorScheme-Text"
     d="M 6 1 L 2 5 L 2 6.4140625 L 2 13 C 2 14.108 2.892 15 4 15 L 9 15 L 9 14 L 4 14 C 3.446 14 3 13.554 3 13 L 3 5.4140625 L 6.4140625 2 L 12 2 C 12.554 2 13 2.446 13 3 L 13 8 L 14 8 L 14 3 C 14 1.892 13.108 1 12 1 L 6 1 z M 4 7 L 4 10 L 6 10 L 6 7 L 4 7 z M 7 7 L 7 9 L 9 9 L 9 7 L 7 7 z M 10 7 L 10 10 L 10.169922 10 C 10.470252 9.14532 11.1453 8.4702219 12 8.1699219 L 12 7 L 10 7 z M 7 10 L 7 13 L 9 13 L 9 10 L 7 10 z M 4 11 L 4 13 L 6 13 L 6 11 L 4 11 z " />
  <path
     id="path3"
     style="fill:currentColor"
     class="ColorScheme-Text"
     d="M 13 9 C 11.892 9 11 9.892 11 11 L 11 12 C 10.446 12 10 12.446 10 13 L 10 15 C 10 15.554 10.446 16 11 16 L 15 16 C 15.554 16 16 15.554 16 15 L 16 13 C 16 12.446 15.554 12 15 12 L 15 11 C 15 9.892 14.108 9 13 9 z M 13 10 C 13.554 10 14 10.446 14 11 L 14 12 L 12 12 L 12 11 C 12 10.446 12.446 10 13 10 z M 11 13 L 15 13 L 15 15 L 11 15 L 11 13 z " />
</svg>
